X: 4
T: The Little Girl of my Heart
M: 4/4
L: 1/8
B: "O'Neill's 4"
N: "Slow" "collected by F. O'Neill"
Z: "Transcribed by Norbert Paap, norbertp@bdu.uva.nl"
K:D
F-G | A-dd>-c d2 cd | e-fgg (f2 d>e) | f-d (c/2A/2G) A2c-d | e2 {=fe}d2 d2 (^FG) |
A-dd>-c d2 cd | e-ag-e d2 de | f-d(c{dc}A) (GB{cB}A>).G | F2 D2 D2 ||
d>c | B2 B-G A2 d-e | f-dc{dc}A G2 F-G | (AB{d}c).B A-dc-e | d2 d2 d2 d-c |
B2 B-G .A2 d-e | f-d(c{dc}A) G2 F-G | (AB{d}c).B (A{Bc}BG>).A | F2 D2 D2 ||


